Numix-Light/scalable/devices/input-tablet-symbolic.svg

<?xml version="1.0" encoding="UTF-8" standalone="no"?>
<svg
   xmlns:dc="http://purl.org/dc/elements/1.1/"
   xmlns:cc="http://creativecommons.org/ns#"
   xmlns:rdf="http://www.w3.org/1999/02/22-rdf-syntax-ns#"
   xmlns:svg="http://www.w3.org/2000/svg"
   xmlns="http://www.w3.org/2000/svg"
   xmlns:sodipodi="http://sodipodi.sourceforge.net/DTD/sodipodi-0.dtd"
   xmlns:inkscape="http://www.inkscape.org/namespaces/inkscape"
   width="16"
   height="16"
   id="svg2"
   version="1.1"
   inkscape:version="0.91 r"
   sodipodi:docname="input-tablet-symbolic.svg">
  <metadata
     id="metadata104">
    <rdf:RDF>
      <cc:Work
         rdf:about="">
        <dc:format>image/svg+xml</dc:format>
        <dc:type
           rdf:resource="http://purl.org/dc/dcmitype/StillImage" />
        <dc:title />
      </cc:Work>
    </rdf:RDF>
  </metadata>
  <sodipodi:namedview
     pagecolor="#ffffff"
     bordercolor="#666666"
     borderopacity="1"
     objecttolerance="10"
     gridtolerance="10"
     guidetolerance="10"
     inkscape:pageopacity="0"
     inkscape:pageshadow="2"
     inkscape:window-width="1920"
     inkscape:window-height="1056"
     id="namedview102"
     showgrid="true"
     inkscape:zoom="27.812866"
     inkscape:cx="-4.4691985"
     inkscape:cy="4.3962924"
     inkscape:window-x="0"
     inkscape:window-y="24"
     inkscape:window-maximized="1"
     inkscape:current-layer="svg2">
    <inkscape:grid
       type="xygrid"
       id="grid3081" />
  </sodipodi:namedview>
  <defs
     id="defs4" />
  <path
     style="fill:#353535;fill-opacity:1;stroke:none"
     d="M 0.8007812,2 C 0.3575812,2 0,2.3575812 0,2.8007812 L 0,13.199219 C 0,13.642419 0.3575812,14 0.8007812,14 L 13.199219,14 C 13.642419,14 14,13.642419 14,13.199219 L 14,2.8007812 C 14,2.3575812 13.642419,2 13.199219,2 Z M 2,4 12,4 12,12 2,12 Z"
     id="rect3083"
     inkscape:connector-curvature="0"
     sodipodi:nodetypes="sssssssssccccc" />
  <path
     style="fill:#353535;fill-opacity:1;stroke:none"
     d="M 15.5,3 C 15.223,3 15,3.223 15,3.5 l 0,8 1,1.5 0,-9.5 C 16,3.223 15.777,3 15.5,3 Z"
     id="path3902"
     inkscape:connector-curvature="0"
     sodipodi:nodetypes="sccccs" />
</svg>

<svg xmlns="http://www.w3.org/2000/svg" viewBox="0 0 16 16">
 <path d="m 0.801 2 c -0.443 0 -0.801 0.358 -0.801 0.801 l 0 10.398 c 0 0.443 0.358 0.801 0.801 0.801 l 12.398 0 c 0.443 0 0.801 -0.358 0.801 -0.801 l 0 -10.398 c 0 -0.443 -0.358 -0.801 -0.801 -0.801 m -11.199 2 10 0 0 8 -10 0" style="fill:#353535;fill-opacity:1;stroke:none"/>
 <path d="M 15.5,3 C 15.223,3 15,3.223 15,3.5 l 0,8 1,1.5 0,-9.5 C 16,3.223 15.777,3 15.5,3 Z" style="fill:#353535;fill-opacity:1;stroke:none"/>
</svg>
